public/assets/icon-hamburger.svg

<svg width="24" height="18" xmlns="http://www.w3.org/2000/svg"><path d="M24 16v2H0v-2h24zm0-8v2H0V8h24zm0-8v2H0V0h24z" fill="#FFF" fill-rule="evenodd"/></svg>

<svg width="24" height="18" viewBox="0 0 24 18" fill="none" xmlns="http://www.w3.org/2000/svg"><path fill-rule="evenodd" clip-rule="evenodd" d="M24 16V18H0V16H24ZM24 8V10H0V8H24ZM24 0V2H0V0H24Z" fill="#212E3C"/></svg>
